apps/frontend/src/assets/icons/crosshairs-gps.svg

<svg width="24" height="24" viewBox="0 0 24 24" fill="none" xmlns="http://www.w3.org/2000/svg">
<path d="M12 8C13.0609 8 14.0783 8.42143 14.8284 9.17157C15.5786 9.92172 16 10.9391 16 12C16 13.0609 15.5786 14.0783 14.8284 14.8284C14.0783 15.5786 13.0609 16 12 16C10.9391 16 9.92172 15.5786 9.17157 14.8284C8.42143 14.0783 8 13.0609 8 12C8 10.9391 8.42143 9.92172 9.17157 9.17157C9.92172 8.42143 10.9391 8 12 8ZM3.05 13H1V11H3.05C3.5 6.83 6.83 3.5 11 3.05V1H13V3.05C17.17 3.5 20.5 6.83 20.95 11H23V13H20.95C20.5 17.17 17.17 20.5 13 20.95V23H11V20.95C6.83 20.5 3.5 17.17 3.05 13ZM12 5C10.1435 5 8.36301 5.7375 7.05025 7.05025C5.7375 8.36301 5 10.1435 5 12C5 13.8565 5.7375 15.637 7.05025 16.9497C8.36301 18.2625 10.1435 19 12 19C13.8565 19 15.637 18.2625 16.9497 16.9497C18.2625 15.637 19 13.8565 19 12C19 10.1435 18.2625 8.36301 16.9497 7.05025C15.637 5.7375 13.8565 5 12 5Z" fill="currentColor"/>
</svg>

<svg xmlns="http://www.w3.org/2000/svg" fill="none" viewBox="0 0 24 24"><path fill="currentColor" d="M12 8a4 4 0 1 1 0 8 4 4 0 0 1 0-8m-8.95 5H1v-2h2.05C3.5 6.83 6.83 3.5 11 3.05V1h2v2.05c4.17.45 7.5 3.78 7.95 7.95H23v2h-2.05c-.45 4.17-3.78 7.5-7.95 7.95V23h-2v-2.05C6.83 20.5 3.5 17.17 3.05 13M12 5a7 7 0 1 0 0 14 7 7 0 0 0 0-14"/></svg>
